!!!COM: Bach, Johann Sebastian
!!!CDT: 1685/3//-1750/7/28/
!!!OTL@@DE: Christ, der du bist der helle Tag
!!!AGN: 4-Part Chorale
!!!SCT: BH 230
!!!SCT: BWV 273
**harm	**root	**kern	**kern	**kern	**kern
!	!	!bass	!tenor	!alto	!soprno
*	*Iorgan	*Iorgan	*Iorgan	*Iorgan	*Iorgan
*	*	*clefF4	*clefF4	*clefG2	*clefG2
*M4/4	*M4/4	*M4/4	*M4/4	*M4/4	*M4/4
*met(c)	*met(c)	*met(c)	*met(c)	*met(c)	*met(c)
*MM60	*MM60	*MM60	*MM60	*MM60	*MM60
*k[b-]	*k[b-]	*k[b-]	*k[b-]	*k[b-]	*k[b-]
*d:	*d:	*d:	*d:	*d:	*d:
i	4GG	4DD	4F	4A	4d
=1	=1	=1	=1	=1	=1
i	4GG	4D	4F	8A	4d
.	.	.	.	8B	.
IIIb	8BB-	8AA	8A	8c	4f
V7b/-VII	8CC	8BB	8G	8d	.
-VII	8FF	8C	4G	8c	4e
viio7	8FF#	8C#	.	8B-	.
i	4GG	8D	8F	4A	4d
.	.	8C	8E	.	.
=2	=2	=2	=2	=2	=2
VI	8EE-	8BB-y	16D	8d	4f
.	.	.	16E	.	.
III	8BB-	8AA	4F	8c	.
iv7	8CC	8GG	.	8B-	4g
-VII	8FF	8C	8E	8c	.
III;	4BB-;	4FF;	4F;	4c;	4a;
III	4BB-	4FF	8F	4c	4a
.	.	.	8G	.	.
=3	=3	=3	=3	=3	=3
IIIb	4BB-	8F	8A	4c	4a
.	.	8E	8G	.	.
i	4GG	4D	4F	4d	8a
.	.	.	.	.	8b-
-VII	4FF	4C	4G	4e	8cc
.	.	.	.	.	8b-
i	4GG	8D	8F	[4f	4a
.	.	8C	8A	.	.
=4	=4	=4	=4	=4	=4
ivb	4CC	4BB-	4d	8f]	4g
.	.	.	.	16e	.
.	.	.	.	16d	.
V7/III	4FF	4C	8c	4e	4g
.	.	.	8B-	.	.
III;	4BB-;	4FF;	4A;	4c;	4f;
i	4GG	8D	4A	4d	4f
.	.	8C	.	.	.
=5	=5	=5	=5	=5	=5
VI	4EE-	8BB-	4B-	8d	4f
.	.	8AA	.	8e	.
III	4BB-	8GG	4c	4f	4a
.	.	8FF	.	.	.
-VII	2FF	4.C	4c	8f	4g
.	.	.	.	16e	.
.	.	.	.	16d	.
.	.	.	4G	4c	4e
.	.	8BB-	.	.	.
=6	=6	=6	=6	=6	=6
III	4BB-	8AA	4.F	4c	4f
.	.	8FF	.	.	.
-VII	4FF	4C	.	4c	4g
.	.	.	8E	.	.
III;	4BB-;	4FF;	4F;	4c;	4a;
III	4BB-	4FF	4F	4c	4a
=7	=7	=7	=7	=7	=7
III	4BB-	8FF	4F	4c	4a
.	.	8GG	.	.	.
III	4BB-	8AA	[4F	4c	4a
.	.	8BB-	.	.	.
-VII	4FF	4C	8F]	8.c	4g
.	.	.	8E	.	.
.	.	.	.	16B-	.
V7	4DD	8C#	[4E	[4A	4g
.	.	8AA	.	.	.
=8	=8	=8	=8	=8	=8
i	4GG	4D	8E]	4A]	4.f
.	.	.	8D	.	.
vii7o/V	4CC#	4GG#	8D	4B	.
.	.	.	16E	.	16e
.	.	.	16F	.	16d
v;	4DD;	4AA;	4E;	4A;	4c;
III	4BB-	8FF	8F	4A	4c
.	.	8EE	8G	.	.
=9	=9	=9	=9	=9	=9
i	4GG	4DD	8A	8d	8f
.	.	.	8G	8e	8g
i	4GG	8D	8F	4f	4a
.	.	8C	8E	.	.
V7b/-VII	4CC	4BB	4D	4f	4g
V	4DD	4C#	4A	4e	4a
=10	=10	=10	=10	=10	=10
i	8GG	8D	8A	8e	4f
V7/-VII	8CC	8GG	8B-	4d	.
V	4DD	4AA	8E	.	4e
.	.	.	8A	8c#	.
i;	4GG;	4DD;	4F;	4A;	4d;
==	==	==	==	==	==
*-	*-	*-	*-	*-	*-
!!chor2scor: -l 2 -s 0.6 -o %b.pmx
!!!YEC: Copyright 2003 by Craig Stuart Sapp
!!!SMA: 371 Bach Chorales, edited by Ludwig Erk, C.F. Peters
!!!PDT: 1850, 1865
!!!ONB: Harmony and Root analysis done manually by Craig Sapp
